X:1
T:Help I fall - Morley
T:#
%%score [ 1 2 3 4 ]
L:1/8
Q:1/4=105
M:4/4
K:F
V:1 treble nm="Soprano" snm="S"
V:2 treble nm="Alto" snm="A"
V:3 treble-8 nm="Tenor" snm="T"
V:4 bass nm="Bass" snm="B"
V:1
 z4 d2 G2 | D3"^Help I Fall" E F2 B2 | A2 d2 c2 B2 | A2 G2"^Thomas Morley\n(1557-1603)" A4 | %4
w: Help I|fall, I fall, La-|dy, my hope lo|doth be- tray|
 B2 d2 f3 e |[M:4/4] d3 e (^c2 d2- | dcBA B4) | A4 z4 | z8 | z2 g2 f3 e | d3 c B2 A2 | G2 G3 G A2 | %12
w: me, my hope lo|doth be- tray *||me,||O help a-|las I fall, I|fall, but you vouch-|
 F2 G2 (G2 F2) | G8 | z8 | g2 d2 G3 A | B3 c d4 | A2 f3 e d2 | ^c2 (d4 c2) | d8 | z8 | z2 g2 f3 e | %22
w: safe to slay *|me.||Help I fall, I|fall, I fall,|my hope lo doth|be- tray *|me.||O help I|
 d3 c B2 A2 | G2 G3 G A2 | F2 G2 (G2 F2) | G8 |: z8 | z4 d3 e | f2 f2 e3 f | g4 d4 | z8 | %31
w: fall, La- dy, I|fall, but you vouch-|safe to slay *|me.||See a|Nymph un- kind and|cru- el,||
 z2 de f2 f2 | e3 f g4 | d2 d2 (d2 c2) | d4 z2 f2 | f2 d2 f4 | d4 z2 c2 | _e4 d4 | c2 B2 (B4- | %39
w: See a Nymph un-|kind and cru-|el, and cru\- *|el, un-|kind and cru-|el, un-|kind, un-|kind and cru\-|
 B2 AG A4) |1 B2 d2 d3 c || B2 _e2 d4 | B8 :|2[Q:1/4=102] B6[Q:1/4=100] d2 || %44
w: |el, to scorn her|on- ly Jew-|el,|el, to|
[Q:1/4=98] d3[Q:1/4=97] c[Q:1/4=96] B2[Q:1/4=95] _e2 |[Q:1/4=92] d8 |[Q:1/4=90] =B8 |] %47
w: scorn her on- ly|Jew-|el.|
V:2
 z8 | d2 G2 D3 E | F2 B2 A2 G2 | ^F2 G2 (G2 F2) | G2 B2 A3 G |[M:4/4] A2 B2 A2 A2 | G2 D2 G4 | %7
w: |Help I fall, I|fall, my hope lo|doth be- tray *|me, my hope a-|las La- dy lo|doth be- tray|
 ^F6 B2 | A3 G F2 E2 | D2 C2 D2 A2 | B2 A2 F3 E | D2 D2 _E2 E2 | D8 | D8 | G2 D2 G,2 A,2 | %15
w: me, O|help a- las I|fall, I fall, a-|las I fall, but|you vouch- safe to|slay|me.|Help I fall, I|
 B,2 G,2 D4 | d2 G2 D3 E | F3 G A2 B2 | A8 | A6 B2 | A3 G F2 E2 | D2 C2 D2 F2 | B2 A2 F3 E | %23
w: fall, La- dy,|help I fall, my|hope lo doth be-|tray|me. O|help I fall, I|fall, a- las, a-|las I fall but|
 D2 D2 _E2 E2 | D8 | D8 |: z8 | G3 A B2 B2 | A3 B c4 | G4 z4 | z4 z2 GA | B2 B2 A3 B | c4 G2 G2 | %33
w: you vouch- safe to|slay|me.||See a Nymph un-|kind and cru-|el,|See a|Nymph un- kind and|cru- el, and|
 B4 F4 | z2 B2 B2 A2 | B4 F4 | z2 B2 B2 A2 | B4 F2 B2 | A4 F4 | F8 |1 F2 B2 B3 A || G2 G2 ^F4 | %42
w: cru- el,|un- kind and|cru- el,|un- kind and|cru- el, un-|kind and|cru-|el, to scorn her|on- ly Jew-|
 G8 :|2 F6 B2 || B3 A G2 G2 | (^F2 G4 F2) | G8 |] %47
w: el,|el, to|scorn her on- ly|Jew\- * *|el.|
V:3
 g2 d2 G3 A | B4 B2 G2 | d3 e f2 g2 | d2 _e2 d4 | G2 g2 f3 c |[M:4/4][K:treble-8] f2 dg e2 d2 | %6
w: Help I fall, I|fall, O I|fall my hope lo|doth be- tray|me, my hope a-|las, O my hope lo|
 d2 d2 d4 | d6 f2 | e3 d c2 B2 | A2 G2 A2 d2 | f3 e d3 c | B2 B2 c4- | c2 B2 A4 | =B8 | z4 g2 d2 | %15
w: doth be- tray|me, O|help I fall, La-|dy, I fall, O|help I fall, but|you vouch- safe|* to slay|me.|Help I|
 G3 A B3 A | G2 G2 F2 B2 | A2 d4 !>!g2- | g2 f2 e4 | ^f6 =f2 | e3 d c2 B2 | A2 G2 A2 d2 | %22
w: fall, I fall, I|fall, a- las my|hope lo doth|* be- tray|me. O|help I fall, I|fall, La- dy, O|
 f3 e d3 c | B2 B2 c4- | c2 B2 A4 | B8 |: d3 e f2 f2 | e3 f g4 | d4 z4 | z4 z2 de | f2 f2 e3 f | %31
w: help I fall, but|you vouch- safe|* to slay|me.|See a Nymph un-|kind and cru-|el,|See a|Nymph un- kind and|
 g4 d4 | z8 | z4 z2 f2 | f2 d2 f4 | B4 z2 f2 | f2 d2 f4 | B2 B2 d3 e | f4 d4 | c8 |1 B2 f2 f3 f || %41
w: cru- el,||un-|kind and cru-|el, un-|kind and cru-|el, a Nymph un-|kind and|cru-|el, to scorn her|
 d2 c2 A4 | G4 z4 :|2 B6 f2 || f3 f d2 c2- | c2 (B2 A4) | G8 |] %47
w: on- ly Jew-|el,|el, to|scorn her on- ly|* Jew\- *|el.|
V:4
 z8 | z8 | z8 | z8 | D2 G,2 D,3 E, |[M:4/4] F,2 G,2 A,2 ^F,2 | G,8 | D,6 D2 | D3 B, A,2 G,2 | %9
w: ||||Help I fall, my|hope lo doth be-|tray|me, O|help I fall, La-|
 F,2 E,2 D,4- | D,4 D,4 | G,2 G,2 C,2 C,2 | D,8 | G,,8- | G,,8 | z4 G,2 D,2 | G,,3 A,, B,,3 C, | %17
w: dy I fall,|* but|you vouch- safe to|slay|me.||Help I|fall, I fall, my|
 D,3 E, F,2 G,2 | A,8 | D,6 D2 | C3 B, A,2 G,2 | F,2 E,2 D,4- | D,4 D,4 | G,2 G,2 C,2 C,2 | D,8 | %25
w: hope lo doth be-|tray|me. O|Help I fall, La-|dy, I fall,|* but|you vouch- safe to|slay|
 G,,4 G,3 A, |: B,2 B,2 A,3 B, | C4 G,4 | z8 | z2 G,A, B,2 B,2 | A,3 B, C4 | G,4 z4 | z8 | %33
w: me. See a|Nymph un- kind and|cru- el,||See a Nymph un-|kind and cru-|el,||
 z2 B,2 B,2 A,2 | B,4 F,4 | z2 B,2 B,2 A,2 | B,4 F,2 F,2 | G,3 A, B,2 G,2 | A,4 B,2 B,2 | F,8 |1 %40
w: un- kind and|cru- el,|un- kind and|cru- el, a|Nymph un- kind and|cru- el, and|cru-|
 B,,2 B,,2 B,3 F, || G,2 C,2 D,4 | G,,4 G,3 A, :|2 B,,6 B,,2 || B,3 F, G,2 C,2 | D,8 | G,,8 |] %47
w: el, to scorn her|on- ly Jew-|el, See a|el, to|scorn her on- ly|Jew-|el.|

